figures-source/5.24.svg

<svg xmlns:rdf="http://www.w3.org/1999/02/22-rdf-syntax-ns#" xmlns="http://www.w3.org/2000/svg" height="306.27" width="444.77" version="1.1" xmlns:cc="http://creativecommons.org/ns#" xmlns:dc="http://purl.org/dc/elements/1.1/">
 <metadata>
  <rdf:RDF>
   <cc:Work rdf:about="">
    <dc:format>image/svg+xml</dc:format>
    <dc:type rdf:resource="http://purl.org/dc/dcmitype/StillImage"/>
    <dc:title/>
   </cc:Work>
  </rdf:RDF>
 </metadata>
 <defs>
  <marker id="Arrow1Lend" refY="0" refX="0" orient="auto">
   <path style="marker-start:none;" d="m-10,0,0-2,10,2-10,2z" fill-rule="evenodd" stroke="#000" stroke-width="1px"/>
  </marker>
 </defs>
 <g transform="translate(-18.5,-34)">
  <rect rx="5.398" ry="12.598" height="25.196" width="34.799" stroke="#616161" y="126" x="220" stroke-width="3px" fill="#d3f5d6"/>
  <text font-family="Courier New" font-size="12px" stroke="#000000" y="126" x="220" stroke-width="0px" fill="#000000">
   <tspan font-size="12px" fill="#000000" style="text-anchor:middle;text-align:center;" stroke="#000000" y="144.59795" x="237.39964" font-family="&apos;Courier" text-align="center">C3</tspan>
  </text>
  <rect rx="5.398" ry="12.598" height="25.196" width="34.799" stroke="#616161" y="80.093" x="125.5" stroke-width="3px" fill="#d3f5d6"/>
  <text font-family="Courier New" font-size="12px" stroke="#000000" y="80.092903" x="125.504" stroke-width="0px" fill="#000000">
   <tspan font-size="12px" fill="#000000" style="text-anchor:middle;text-align:center;" stroke="#000000" y="98.690849" x="142.90366" font-family="&apos;Courier" text-align="center">C2</tspan>
  </text>
  <rect rx="5.398" ry="12.598" height="25.196" width="34.799" stroke="#616161" y="80.74" x="60.606" stroke-width="3px" fill="#d3f5d6"/>
  <text font-family="Courier New" font-size="12px" stroke="#000000" y="80.739998" x="60.605999" stroke-width="0px" fill="#000000">
   <tspan font-size="12px" fill="#000000" style="text-anchor:middle;text-align:center;" stroke="#000000" y="99.337952" x="78.005653" font-family="&apos;Courier" text-align="center">C1</tspan>
  </text>
  <rect rx="5.398" ry="12.598" height="25.196" width="34.799" stroke="#616161" y="126" x="286.15" stroke-width="3px" fill="#d3f5d6"/>
  <text font-family="Courier New" font-size="12px" stroke="#000000" y="126" x="286.15399" stroke-width="0px" fill="#000000">
   <tspan font-size="12px" fill="#000000" style="text-anchor:middle;text-align:center;" stroke="#000000" y="144.59795" x="303.55365" font-family="&apos;Courier" text-align="center">C4</tspan>
  </text>
  <path style="marker-start:none;marker-end:url(#Arrow1Lend);" fill="none" d="m284.65,138.6-28.355,0" stroke="#000"/>
  <path style="marker-start:none;marker-end:url(#Arrow1Lend);" fill="none" d="M218.52,137.55,190.4,136,157.43,105.94" stroke="#000"/>
  <path style="marker-start:none;marker-end:url(#Arrow1Lend);" fill="none" d="M124,92.879,96.905,93.15" stroke="#000"/>
  <path style="marker-end:url(#Arrow1Lend);marker-start:none;" d="M59.106,93.338,19,93.338" stroke="#000" stroke-dasharray="3, 3" fill="none"/>
  <path style="marker-start:none;marker-end:url(#Arrow1Lend);" fill="none" d="m345.21,138.89-22.761-0.161" stroke="#000"/>
  <rect height="26.49" width="56.208" stroke="#616161" y="35" x="114.8" stroke-width="2px" fill="#EEE"/>
  <text font-family="Luxi Sans" font-size="10px" stroke="#cccccc" y="35" x="114.799" stroke-width="0px" fill="#cccccc">
   <tspan font-size="10px" fill="#777777" style="text-anchor:middle;text-align:center;" stroke="#777777" y="53.245098" x="142.90305" font-family="&apos;LucidaGrande" text-align="center">master</tspan>
  </text>
  <path style="marker-start:none;marker-end:url(#Arrow1Lend);" fill="none" d="m142.9,62.49,0,16.103" stroke="#000"/>
  <rect height="26.49" width="98" stroke="#616161" y="126" x="346.21" stroke-width="2px" fill="#EEE"/>
  <text font-family="Luxi Sans" font-size="10px" stroke="#cccccc" y="126" x="346.21399" stroke-width="0px" fill="#cccccc">
   <tspan font-size="10px" fill="#777777" style="text-anchor:middle;text-align:center;" stroke="#777777" y="144.2451" x="395.21399" font-family="&apos;LucidaGrande" text-align="center">tv/rebase-stat</tspan>
  </text>
  <rect rx="5.398" ry="12.598" height="25.196" width="34.799" stroke="#616161" y="172.33" x="194.36" stroke-width="3px" fill="#d3f5d6"/>
  <text font-family="Courier New" font-size="12px" stroke="#000000" y="172.334" x="194.35699" stroke-width="0px" fill="#000000">
   <tspan font-size="12px" fill="#000000" style="text-anchor:middle;text-align:center;" stroke="#000000" y="190.93195" x="211.75665" font-family="&apos;Courier" text-align="center">C5</tspan>
  </text>
  <rect rx="5.398" ry="12.598" height="25.196" width="34.799" stroke="#616161" y="172.33" x="260.51" stroke-width="3px" fill="#d3f5d6"/>
  <text font-family="Courier New" font-size="12px" stroke="#000000" y="172.334" x="260.51001" stroke-width="0px" fill="#000000">
   <tspan font-size="12px" fill="#000000" style="text-anchor:middle;text-align:center;" stroke="#000000" y="190.93195" x="277.90964" font-family="&apos;Courier" text-align="center">C6</tspan>
  </text>
  <path style="marker-start:none;marker-end:url(#Arrow1Lend);" fill="none" d="m259.01,184.93-28.354,0" stroke="#000"/>
  <path style="marker-start:none;marker-end:url(#Arrow1Lend);" fill="none" d="m320.27,185.17-23.459-0.134" stroke="#000"/>
  <rect height="26.49" width="141" stroke="#616161" y="172.33" x="321.27" stroke-width="2px" fill="#EEE"/>
  <text font-family="Luxi Sans" font-size="10px" stroke="#cccccc" y="172.334" x="321.26801" stroke-width="0px" fill="#cccccc">
   <tspan font-size="10px" fill="#777777" style="text-anchor:middle;text-align:center;" stroke="#777777" y="190.5791" x="391.76801" font-family="&apos;LucidaGrande" text-align="center">jk/clone-post-checkout</tspan>
  </text>
  <path style="marker-start:none;marker-end:url(#Arrow1Lend);" fill="none" d="M193.49,178.79,176,172.91,148.67,106.68" stroke="#000"/>
  <rect height="26.49" width="85.698" stroke="#616161" y="265" x="260.51" stroke-width="2px" fill="#EEE"/>
  <text font-family="Luxi Sans" font-size="10px" stroke="#cccccc" y="265.00101" x="260.51001" stroke-width="0px" fill="#cccccc">
   <tspan font-size="10px" fill="#777777" style="text-anchor:middle;text-align:center;" stroke="#777777" y="283.24609" x="303.35901" font-family="&apos;LucidaGrande" text-align="center">js/notes</tspan>
  </text>
  <rect height="26.49" width="104.09" stroke="#616161" y="217.37" x="292.91" stroke-width="2px" fill="#EEE"/>
  <text font-family="Luxi Sans" font-size="10px" stroke="#cccccc" y="217.373" x="292.91101" stroke-width="0px" fill="#cccccc">
   <tspan font-size="10px" fill="#777777" style="text-anchor:middle;text-align:center;" stroke="#777777" y="235.6181" x="344.95801" font-family="&apos;LucidaGrande" text-align="center">db/push-cleanup</tspan>
  </text>
  <rect height="26.49" width="85.698" stroke="#616161" y="312.78" x="225.89" stroke-width="2px" fill="#EEE"/>
  <text font-family="Luxi Sans" font-size="10px" stroke="#cccccc" y="312.776" x="225.88901" stroke-width="0px" fill="#cccccc">
   <tspan font-size="10px" fill="#777777" style="text-anchor:middle;text-align:center;" stroke="#777777" y="331.02109" x="268.73801" font-family="&apos;LucidaGrande" text-align="center">ps/blame</tspan>
  </text>
  <rect rx="5.398" ry="12.598" height="25.196" width="34.799" stroke="#616161" y="218.67" x="166" stroke-width="3px" fill="#d3f5d6"/>
  <text font-family="Courier New" font-size="12px" stroke="#000000" y="218.66701" x="166" stroke-width="0px" fill="#000000">
   <tspan font-size="12px" fill="#000000" style="text-anchor:middle;text-align:center;" stroke="#000000" y="237.26495" x="183.39964" font-family="&apos;Courier" text-align="center">C7</tspan>
  </text>
  <rect rx="5.398" ry="12.598" height="25.196" width="34.799" stroke="#616161" y="218.67" x="232.15" stroke-width="3px" fill="#d3f5d6"/>
  <text font-family="Courier New" font-size="12px" stroke="#000000" y="218.66701" x="232.153" stroke-width="0px" fill="#000000">
   <tspan font-size="12px" fill="#000000" style="text-anchor:middle;text-align:center;" stroke="#000000" y="237.26495" x="249.55264" font-family="&apos;Courier" text-align="center">C8</tspan>
  </text>
  <rect rx="5.398" ry="12.598" height="25.196" width="34.799" stroke="#616161" y="265.72" x="128.2" stroke-width="3px" fill="#d3f5d6"/>
  <text font-family="Courier New" font-size="12px" stroke="#000000" y="265.72101" x="128.20399" stroke-width="0px" fill="#000000">
   <tspan font-size="12px" fill="#000000" style="text-anchor:middle;text-align:center;" stroke="#000000" y="284.31894" x="145.60365" font-family="&apos;Courier" text-align="center">C9</tspan>
  </text>
  <rect rx="4.1199" ry="12.598" height="25.196" width="42.643" stroke="#616161" y="265.72" x="194.36" stroke-width="3px" fill="#d3f5d6"/>
  <text font-family="Courier New" font-size="12px" stroke="#000000" y="265.72101" x="194.35699" stroke-width="0px" fill="#000000">
   <tspan font-size="12px" fill="#000000" style="text-anchor:middle;text-align:center;" stroke="#000000" y="284.31894" x="215.6783" font-family="&apos;Courier" text-align="center">C10</tspan>
  </text>
  <rect rx="4.1199" ry="12.598" height="25.196" width="42.643" stroke="#616161" y="312.78" x="97" stroke-width="3px" fill="#d3f5d6"/>
  <text font-family="Courier New" font-size="12px" stroke="#000000" y="312.776" x="97" stroke-width="0px" fill="#000000">
   <tspan font-size="12px" fill="#000000" style="text-anchor:middle;text-align:center;" stroke="#000000" y="331.37396" x="118.3213" font-family="&apos;Courier" text-align="center">C11</tspan>
  </text>
  <rect rx="4.1199" ry="12.598" height="25.196" width="42.643" stroke="#616161" y="312.78" x="162.43" stroke-width="3px" fill="#d3f5d6"/>
  <text font-family="Courier New" font-size="12px" stroke="#000000" y="312.776" x="162.433" stroke-width="0px" fill="#000000">
   <tspan font-size="12px" fill="#000000" style="text-anchor:middle;text-align:center;" stroke="#000000" y="331.37396" x="183.7543" font-family="&apos;Courier" text-align="center">C12</tspan>
  </text>
  <path style="marker-start:none;marker-end:url(#Arrow1Lend);" fill="none" d="M169.27,217.8,148,197.53,143.59,106.79" stroke="#000"/>
  <path style="marker-start:none;marker-end:url(#Arrow1Lend);" fill="none" d="m230.65,231.26-28.354,0" stroke="#000"/>
  <path style="marker-start:none;marker-end:url(#Arrow1Lend);" fill="none" d="m291.91,230.98-23.459,0.159" stroke="#000"/>
  <path style="marker-start:none;marker-end:url(#Arrow1Lend);" fill="none" d="M138.16,264.4,108,208,138.66,106.72" stroke="#000"/>
  <path style="marker-start:none;marker-end:url(#Arrow1Lend);" fill="none" d="M112.45,311.39,69,208,134.02,106.55" stroke="#000"/>
  <path style="marker-start:none;marker-end:url(#Arrow1Lend);" fill="none" d="m192.86,278.32-28.354,0" stroke="#000"/>
  <path style="marker-start:none;marker-end:url(#Arrow1Lend);" fill="none" d="m160.93,325.37-19.79,0" stroke="#000"/>
  <path style="marker-start:none;marker-end:url(#Arrow1Lend);" fill="none" d="M259.51,278.28,238.5,278.3" stroke="#000"/>
  <path style="marker-start:none;marker-end:url(#Arrow1Lend);" fill="none" d="m224.89,325.69-18.314-0.139" stroke="#000"/>
 </g>
</svg>

<?xml version="1.0" encoding="utf-8"?>
<svg xmlns="http://www.w3.org/2000/svg" xmlns:xlink="http://www.w3.org/1999/xlink">
	<defs>
		<marker id="Arrow1Lend" orient="auto" refX="0.0" refY="0.0" style="overflow:visible;">
			
              
			<path d="M -10,0.0 L -10.0,-2.0 L 0.0,0.0 L -10.0,2.0 z " id="path3666" style="fill-rule:evenodd;stroke:#000000;stroke-width:1.0px;marker-start:none;"/>
			
            
		</marker>
	</defs>
	<g style="stroke:#000000;fill:#fff">
		<rect height="25.1959" id="1342" rx="5.39800528271" ry="12.59795" style="stroke:#616161;stroke-width:3.000000px;fill:#d3f5d6" width="34.7993" x="220.0" y="126.0"/>
		<text id="1342_text" style="fill:#000000;stroke:#000000;stroke-width:0px;font-family: Courier New;font-size:12px" x="220.0" y="126.0">
			<tspan fill="#000000" font-family="Courier;" font-size="12.0px" id="1342_line1" stroke="#000000" text-align="center" text-anchor="middle" x="237.39965" y="144.59795">
				C3
			</tspan>
		</text>
		<rect height="25.1959" id="1343" rx="5.39800528271" ry="12.59795" style="stroke:#616161;stroke-width:3.000000px;fill:#d3f5d6" width="34.7993" x="125.504" y="80.0929"/>
		<text id="1343_text" style="fill:#000000;stroke:#000000;stroke-width:0px;font-family: Courier New;font-size:12px" x="125.504" y="80.0929">
			<tspan fill="#000000" font-family="Courier;" font-size="12.0px" id="1343_line1" stroke="#000000" text-align="center" text-anchor="middle" x="142.90365" y="98.69085">
				C2
			</tspan>
		</text>
		<rect height="25.1959" id="1344" rx="5.39800528271" ry="12.59795" style="stroke:#616161;stroke-width:3.000000px;fill:#d3f5d6" width="34.7993" x="60.606" y="80.74"/>
		<text id="1344_text" style="fill:#000000;stroke:#000000;stroke-width:0px;font-family: Courier New;font-size:12px" x="60.606" y="80.74">
			<tspan fill="#000000" font-family="Courier;" font-size="12.0px" id="1344_line1" stroke="#000000" text-align="center" text-anchor="middle" x="78.00565" y="99.33795">
				C1
			</tspan>
		</text>
		<rect height="25.1959" id="1345" rx="5.39800528271" ry="12.59795" style="stroke:#616161;stroke-width:3.000000px;fill:#d3f5d6" width="34.7993" x="286.154" y="126.0"/>
		<text id="1345_text" style="fill:#000000;stroke:#000000;stroke-width:0px;font-family: Courier New;font-size:12px" x="286.154" y="126.0">
			<tspan fill="#000000" font-family="Courier;" font-size="12.0px" id="1345_line1" stroke="#000000" text-align="center" text-anchor="middle" x="303.55365" y="144.59795">
				C4
			</tspan>
		</text>
		<path d="M 284.654,138.598 L 256.299,138.598" id="1346" style="marker-start:none;stroke:#000000;marker-end:url(#Arrow1Lend);fill:none"/>
		<path d="M 218.517,137.554 L 190.401,136.0  L 157.434,105.94" id="1347" style="marker-start:none;stroke:#000000;marker-end:url(#Arrow1Lend);fill:none"/>
		<path d="M 124.005,92.8793 L 96.9047,93.1495" id="1348" style="marker-start:none;stroke:#000000;marker-end:url(#Arrow1Lend);fill:none"/>
		<path d="M 59.106,93.338 L 19.0,93.338" id="1349" style="marker-start:none;stroke:#000000;marker-end:url(#Arrow1Lend);stroke-dasharray:3 3;fill:none"/>
		<path d="M 345.214,138.892 L 322.453,138.731" id="1351" style="marker-start:none;stroke:#000000;marker-end:url(#Arrow1Lend);fill:none"/>
		<rect height="26.4902" id="1352" style="stroke:#616161;stroke-width:2.000000px;fill:#eeeeee" width="56.2081" x="114.799" y="35.0"/>
		<text id="1352_text" style="fill:#cccccc;stroke:#cccccc;stroke-width:0px;font-family: Luxi Sans;font-size:10px" x="114.799" y="35.0">
			<tspan fill="#777777" font-family="LucidaGrande;" font-size="10.0px" id="1352_line1" stroke="#777777" text-align="center" text-anchor="middle" x="142.90305" y="53.2451">
				master
			</tspan>
		</text>
		<path d="M 142.903,62.4902 L 142.903,78.5929" id="1353" style="marker-start:none;stroke:#000000;marker-end:url(#Arrow1Lend);fill:none"/>
		<rect height="26.4902" id="1350" style="stroke:#616161;stroke-width:2.000000px;fill:#eeeeee" width="98.0" x="346.214" y="126.0"/>
		<text id="1350_text" style="fill:#cccccc;stroke:#cccccc;stroke-width:0px;font-family: Luxi Sans;font-size:10px" x="346.214" y="126.0">
			<tspan fill="#777777" font-family="LucidaGrande;" font-size="10.0px" id="1350_line1" stroke="#777777" text-align="center" text-anchor="middle" x="395.214" y="144.2451">
				tv/rebase-stat
			</tspan>
		</text>
		<rect height="25.1959" id="1373" rx="5.39800528271" ry="12.59795" style="stroke:#616161;stroke-width:3.000000px;fill:#d3f5d6" width="34.7993" x="194.357" y="172.334"/>
		<text id="1373_text" style="fill:#000000;stroke:#000000;stroke-width:0px;font-family: Courier New;font-size:12px" x="194.357" y="172.334">
			<tspan fill="#000000" font-family="Courier;" font-size="12.0px" id="1373_line1" stroke="#000000" text-align="center" text-anchor="middle" x="211.75665" y="190.93195">
				C5
			</tspan>
		</text>
		<rect height="25.1959" id="1374" rx="5.39800528271" ry="12.59795" style="stroke:#616161;stroke-width:3.000000px;fill:#d3f5d6" width="34.7993" x="260.51" y="172.334"/>
		<text id="1374_text" style="fill:#000000;stroke:#000000;stroke-width:0px;font-family: Courier New;font-size:12px" x="260.51" y="172.334">
			<tspan fill="#000000" font-family="Courier;" font-size="12.0px" id="1374_line1" stroke="#000000" text-align="center" text-anchor="middle" x="277.90965" y="190.93195">
				C6
			</tspan>
		</text>
		<path d="M 259.01,184.932 L 230.656,184.932" id="1375" style="marker-start:none;stroke:#000000;marker-end:url(#Arrow1Lend);fill:none"/>
		<path d="M 320.268,185.173 L 296.809,185.039" id="1376" style="marker-start:none;stroke:#000000;marker-end:url(#Arrow1Lend);fill:none"/>
		<rect height="26.4902" id="1377" style="stroke:#616161;stroke-width:2.000000px;fill:#eeeeee" width="141.0" x="321.268" y="172.334"/>
		<text id="1377_text" style="fill:#cccccc;stroke:#cccccc;stroke-width:0px;font-family: Luxi Sans;font-size:10px" x="321.268" y="172.334">
			<tspan fill="#777777" font-family="LucidaGrande;" font-size="10.0px" id="1377_line1" stroke="#777777" text-align="center" text-anchor="middle" x="391.768" y="190.5791">
				jk/clone-post-checkout
			</tspan>
		</text>
		<path d="M 193.492,178.79 L 176.0,172.907  L 148.674,106.675" id="1378" style="marker-start:none;stroke:#000000;marker-end:url(#Arrow1Lend);fill:none"/>
		<rect height="26.4902" id="1379" style="stroke:#616161;stroke-width:2.000000px;fill:#eeeeee" width="85.698" x="260.51" y="265.001"/>
		<text id="1379_text" style="fill:#cccccc;stroke:#cccccc;stroke-width:0px;font-family: Luxi Sans;font-size:10px" x="260.51" y="265.001">
			<tspan fill="#777777" font-family="LucidaGrande;" font-size="10.0px" id="1379_line1" stroke="#777777" text-align="center" text-anchor="middle" x="303.359" y="283.2461">
				js/notes
			</tspan>
		</text>
		<rect height="26.4902" id="1380" style="stroke:#616161;stroke-width:2.000000px;fill:#eeeeee" width="104.094" x="292.911" y="217.373"/>
		<text id="1380_text" style="fill:#cccccc;stroke:#cccccc;stroke-width:0px;font-family: Luxi Sans;font-size:10px" x="292.911" y="217.373">
			<tspan fill="#777777" font-family="LucidaGrande;" font-size="10.0px" id="1380_line1" stroke="#777777" text-align="center" text-anchor="middle" x="344.958" y="235.6181">
				db/push-cleanup
			</tspan>
		</text>
		<rect height="26.4902" id="1382" style="stroke:#616161;stroke-width:2.000000px;fill:#eeeeee" width="85.698" x="225.889" y="312.776"/>
		<text id="1382_text" style="fill:#cccccc;stroke:#cccccc;stroke-width:0px;font-family: Luxi Sans;font-size:10px" x="225.889" y="312.776">
			<tspan fill="#777777" font-family="LucidaGrande;" font-size="10.0px" id="1382_line1" stroke="#777777" text-align="center" text-anchor="middle" x="268.738" y="331.0211">
				ps/blame
			</tspan>
		</text>
		<rect height="25.1959" id="1383" rx="5.39800528271" ry="12.59795" style="stroke:#616161;stroke-width:3.000000px;fill:#d3f5d6" width="34.7993" x="166.0" y="218.667"/>
		<text id="1383_text" style="fill:#000000;stroke:#000000;stroke-width:0px;font-family: Courier New;font-size:12px" x="166.0" y="218.667">
			<tspan fill="#000000" font-family="Courier;" font-size="12.0px" id="1383_line1" stroke="#000000" text-align="center" text-anchor="middle" x="183.39965" y="237.26495">
				C7
			</tspan>
		</text>
		<rect height="25.1959" id="1384" rx="5.39800528271" ry="12.59795" style="stroke:#616161;stroke-width:3.000000px;fill:#d3f5d6" width="34.7993" x="232.153" y="218.667"/>
		<text id="1384_text" style="fill:#000000;stroke:#000000;stroke-width:0px;font-family: Courier New;font-size:12px" x="232.153" y="218.667">
			<tspan fill="#000000" font-family="Courier;" font-size="12.0px" id="1384_line1" stroke="#000000" text-align="center" text-anchor="middle" x="249.55265" y="237.26495">
				C8
			</tspan>
		</text>
		<rect height="25.1959" id="1387" rx="5.39800528271" ry="12.59795" style="stroke:#616161;stroke-width:3.000000px;fill:#d3f5d6" width="34.7993" x="128.204" y="265.721"/>
		<text id="1387_text" style="fill:#000000;stroke:#000000;stroke-width:0px;font-family: Courier New;font-size:12px" x="128.204" y="265.721">
			<tspan fill="#000000" font-family="Courier;" font-size="12.0px" id="1387_line1" stroke="#000000" text-align="center" text-anchor="middle" x="145.60365" y="284.31895">
				C9
			</tspan>
		</text>
		<rect height="25.1959" id="1388" rx="4.11986141227" ry="12.59795" style="stroke:#616161;stroke-width:3.000000px;fill:#d3f5d6" width="42.6426" x="194.357" y="265.721"/>
		<text id="1388_text" style="fill:#000000;stroke:#000000;stroke-width:0px;font-family: Courier New;font-size:12px" x="194.357" y="265.721">
			<tspan fill="#000000" font-family="Courier;" font-size="12.0px" id="1388_line1" stroke="#000000" text-align="center" text-anchor="middle" x="215.6783" y="284.31895">
				C10
			</tspan>
		</text>
		<rect height="25.1959" id="1389" rx="4.11986141227" ry="12.59795" style="stroke:#616161;stroke-width:3.000000px;fill:#d3f5d6" width="42.6426" x="97.0" y="312.776"/>
		<text id="1389_text" style="fill:#000000;stroke:#000000;stroke-width:0px;font-family: Courier New;font-size:12px" x="97.0" y="312.776">
			<tspan fill="#000000" font-family="Courier;" font-size="12.0px" id="1389_line1" stroke="#000000" text-align="center" text-anchor="middle" x="118.3213" y="331.37395">
				C11
			</tspan>
		</text>
		<rect height="25.1959" id="1390" rx="4.11986141227" ry="12.59795" style="stroke:#616161;stroke-width:3.000000px;fill:#d3f5d6" width="42.6426" x="162.433" y="312.776"/>
		<text id="1390_text" style="fill:#000000;stroke:#000000;stroke-width:0px;font-family: Courier New;font-size:12px" x="162.433" y="312.776">
			<tspan fill="#000000" font-family="Courier;" font-size="12.0px" id="1390_line1" stroke="#000000" text-align="center" text-anchor="middle" x="183.7543" y="331.37395">
				C12
			</tspan>
		</text>
		<path d="M 169.274,217.803 L 148.0,197.529  L 143.589,106.787" id="1391" style="marker-start:none;stroke:#000000;marker-end:url(#Arrow1Lend);fill:none"/>
		<path d="M 230.653,231.265 L 202.299,231.265" id="1392" style="marker-start:none;stroke:#000000;marker-end:url(#Arrow1Lend);fill:none"/>
		<path d="M 291.911,230.978 L 268.452,231.137" id="1393" style="marker-start:none;stroke:#000000;marker-end:url(#Arrow1Lend);fill:none"/>
		<path d="M 138.159,264.398 L 108.0,208.0  L 138.656,106.724" id="1394" style="marker-start:none;stroke:#000000;marker-end:url(#Arrow1Lend);fill:none"/>
		<path d="M 112.446,311.393 L 69.0,208.0  L 134.02,106.552" id="1395" style="marker-start:none;stroke:#000000;marker-end:url(#Arrow1Lend);fill:none"/>
		<path d="M 192.857,278.319 L 164.503,278.319" id="1396" style="marker-start:none;stroke:#000000;marker-end:url(#Arrow1Lend);fill:none"/>
		<path d="M 160.933,325.374 L 141.143,325.374" id="1397" style="marker-start:none;stroke:#000000;marker-end:url(#Arrow1Lend);fill:none"/>
		<path d="M 259.51,278.283 L 238.5,278.3" id="1398" style="marker-start:none;stroke:#000000;marker-end:url(#Arrow1Lend);fill:none"/>
		<path d="M 224.889,325.687 L 206.575,325.548" id="1399" style="marker-start:none;stroke:#000000;marker-end:url(#Arrow1Lend);fill:none"/>
	</g>
</svg>
